X:1
T:Let thy merciful ears - Mudd
%%score [ 1 2 3 4 ]
L:1/8
Q:1/4=80
M:4/4
K:G
V:1 treble nm="Soprano" snm="S"
V:2 treble nm="Alto" snm="A"
V:3 treble-8 nm="Tenor" snm="T"
V:4 bass nm="Bass" snm="B"
V:1
"^Collect for the 10th \nSunday after Trinity" E3"^Let Thy Merciful Ears, O Lord" F ^GG A2 | %1
w: Let thy mer- ci- ful|
 B2 B2 c2 A2 | d2 dc B2 A2 | ^G2 AB c3 c | (B2 A4"^Thomas Mudd" ^G2) |[M:4/4] A4 z4 | z4 z2 e2 | %7
w: ears, O Lord, be|o- pen un- to the|prayers of thy hum- ble|ser\- * *|vants;|and|
 e2 d2 c2 c2 | B4 A2 A2 | ^G2 BB A3 A | ^G4 z4 | z4 z2 E2 | A3 A G2 G2 | F4 z4 | z4 z2 B2 | %15
w: that they may ob-|tain, may ob-|tain their pe- ti- ti-|ons,|make|them to ask such|things,|make|
[M:4/4] d3 d d2 c2 | B2 AA B4 | B4 z2 B2 | e2 B2 c3 c | B3 A ^G4 | %20
w: them to ask such|things as shall please|thee; through|Je- sus Christ our|Lord, our Lord,|
[Q:1/4=76] (A6[Q:1/4=71] ^G[Q:1/4=70]F) |[Q:1/4=70] ^G8 |] %22
w: A\- * *|men.|
V:2
 B,2 B,2 EE E2 | F2 ^G2 A2 E2 | =G2 GG G2 E2 | E2 =FF G2 G2 | (=F4 E3 D) |[M:4/4] ^C4 z4 | z8 | %7
w: Let thy mer- ci- ful|ears, O Lord, be|o- pen un- to the|prayers of thy hum- ble|ser\- * *|vants;||
 z4 z2 E2 | E2 D2 C2 C2 | B,2 EE E2 E2 | E4 z2 E2 | G3 G F2 (E2- | E2 ^D2) E4 | z4 z2 E2 | %14
w: and|that they may ob-|tain their pe- ti- ti-|ons, make|them to ask such|* * things,|make|
 A3 A G2 G2 |[M:4/4] F6 E2 | ^D2 (E4 D2) | E4 z2 =G2 | G2 G2 F2 E2 | E2 (^D2 E4- | E4) E4- | E8 |] %22
w: them to ask such|things as|shall please *|thee; through|Je- sus Christ our|Lord. A\- *|* men.||
V:3
 ^G3 A BB c2 | B2 B2 e2 c2 | B2 Be d2 c2 | B2 dd e3 e | (d3 c BA B2) | %5
w: Let thy mer- ci- ful|ears, O Lord, be|o- pen un- to the|prayers of thy hum- ble|ser\- * * * *|
[M:4/4][K:treble-8] A2 e2 e3 d | c2 B2 A4 | ^G4 A4 | E8 | z2 ^GG A2 c2 | B2 B2 c3 c | B2 B2 B4 | %12
w: vants; and that they|may ob- tain,|may ob-|tain|their pe- ti- ti-|ons, make them to|ask such things,|
 A4 B4 | z2 B2 e3 e | e2 ^d2 e2 B2 |[M:4/4][K:treble-8] B4 (A3 G) | F2 E2 F4 | ^G4 z2 B2 | %18
w: such things,|make them to|ask such things as|shall please *|thee, shall please|thee; through|
 B2 B2 A3 A | F2 B2 B4 | c4 B4- | B8 |] %22
w: Je- sus Christ our|Lord, our Lord,|A- men.||
V:4
 E,2 E,2 E,E, C,2 | D,2 E,2 A,,2 A,2 | G,2 G,E, G,2 A,2 | (E,2 D,)D, C,4 | D,2 D,2 E,4 | %5
w: Let thy mer- ci- ful|ears, O Lord, be|o- pen un- to the|pray- ers of thy|hum- ble ser-|
[M:4/4] A,,4 z2 E,2 | E,3 D, C,2 C,2 | B,,4 A,,4 | ^G,,4 A,,4 | E,2 E,2 C,2 A,,2 | E,4 z4 | %11
w: vants; and|that they may ob-|tain, may|ob- tain|their pe- ti- ti-|ons,|
 z2 E,2 G,3 G, | F,2 F,2 E,2 E,2 | B,3 B, A,2 (G,2 | F,4) E,4 |[M:4/4] B,,4 D,2 A,,2 | %16
w: make them to|ask such things, make|them to ask such|* things|as shall please|
 B,,2 C,C, B,,4 | E,4 z2 E,2 | E,2 E,2 A,,3 A,, | B,,2 B,,2 E,4 | A,,4 E,4- | E,8 |] %22
w: thee, as shall please|thee; through|Je- sus Christ our|Lord, our Lord,|A- men.||

